X:15
T:No.135 Francie Dearg Jig
M:6/8
L:1/8
C:jig
K:D
AcA GFG|ABc def|gbg fdf|ecA GFG|
AcA GFG|ABc def|gbg fdf|ecA A3|
AcA GFG|ABc def|gbg fdf|ecA GFG|
cBA GFG|ABc def|gbg fdf|ecA Ace||
a2A A^GA|cBA e2f|gdB GFG|BAB dBA|
a2a A^GA|cBA e2f|gbg fdf|[1ecA Ace:|[2ecA A3||
